X:1
T:Nashville, 88.88.88
T:Nashville, 88.88.88
T:Adapted by Lowell Mason (1792-1872)
T:Public Domain Courtesy of the Cyber Hymnal™
C:Adapted by Lowell Mason (1792-1872)
Z:Public Domain
Z:Courtesy of the Cyber Hymnal™
%%score ( 1 2 ) 3
L:1/8
Q:1/4=135
M:3/2
K:D
V:1 treble 
V:2 treble 
V:3 bass 
V:1
 D4 | [DF]2 [EG]2 [FA]4 [FA]4 | [GB]2 [GB]2 !fermata![FA]4 [EA]4 | F2 [EA]2 [Dd]4 [EA]4 | %4
 [EA]2 [EB]2 !fermata![CA]4 [EA]4 | [DF]2 [A,D]2 G4 [DF]4 | [DE]2 [CE]2 !fermata!D4 [Fd]4 | %7
 [Fd]2 [Gc]2 [Ad]4 [FA]4 | [GB]2 [GB]2 !fermata![FA]4 [Fd]4 | [Fd]2 [Gc]2 [Ad]4 [FA]4 | %10
 [GB]2 [GB]2 !fermata![FA]4 [EA]4 | [DF]2 [A,D]2 G4 [DF]4 | [DE]2 [CE]2 !fermata!D4 |] %13
V:2
 D4 | x12 | x12 | F2 x10 | x12 | x4 (B,2 C2) x4 | x4 D4 x4 | x12 | x12 | x12 | x12 | %11
 x4 (B,2 C2) x4 | x4 D4 |] %13
V:3
 [D,F,]4 | [D,A,]2 [D,A,]2 [D,A,]4 [D,D]4 | [G,,D]2 [B,,D]2 !fermata![D,D]4 [A,,C]4 | %3
 [D,D]2 [C,A,]2 [B,,B,]4 [C,A,]4 | [D,A,]2 [E,^G,]2 !fermata![A,,A,]4 [A,,C]4 | %5
 [D,D]2 [F,A,]2 [E,G,]4 [D,A,]4 | [G,,B,]2 [A,,A,]2 !fermata![D,F,]4 [D,A,]4 | %7
 [D,A,]2 [E,A,]2 [F,A,]4 [D,D]4 | [G,,D]2 [B,,D]2 !fermata![D,D]4 [D,A,]4 | %9
 [D,A,]2 [E,A,]2 [F,A,]4 [D,D]4 | [G,,D]2 [B,,D]2 !fermata![D,D]4 [A,,C]4 | %11
 [D,D]2 [F,A,]2 [E,G,]4 [D,A,]4 | [G,,B,]2 [A,,A,]2 !fermata![D,F,]4 |] %13

